X: 111
M: 2/4
L: 1/16
K: D
|:\
f2f2g2g2 | e2e2f2f2 |\
d2d2e2e2 | c2c2 d2z2 ::\
e4 (dcBA) | e2e2c2A2 |
a4 (gfed) | a2a2f2d2 |\
f2f2g2g2 | e2e2f2f2 | d2d2e2e2 | c2c2 d4 ::\
d4 f2a2 | a4 g2f2 |\
g2e2d2c2 | (dc)(de) d2A2 |\
d4 f2a2 | a4 g2f2 |
g2e2d2c2 | {c}d4 d4 ::\
c2e2 gedc | d2d2 d4 |\
d4 f2a2 | a4 g2f2 |\
g2e2d2c2 | d4 d4 :|


